app/assets/images/icon-edit-blue.svg

<?xml version="1.0" encoding="UTF-8"?>
<svg width="16px" height="16px" viewBox="0 0 16 16" version="1.1" xmlns="http://www.w3.org/2000/svg" xmlns:xlink="http://www.w3.org/1999/xlink">
    <!-- Generator: Sketch 51.3 (57544) - http://www.bohemiancoding.com/sketch -->
    <title>Colors/Base/Black</title>
    <desc>Created with Sketch.</desc>
    <defs>
        <path d="M7.92572798,3.00428655 L1.00199753,9.34382025 L1.00199753,11.6237002 L3.30623854,11.6237002 L10.2321641,5.30721897 L7.92572798,3.00428655 Z M8.66400508,2.32830232 L10.9718396,4.63263098 L12.4234573,3.30874783 L10.1147108,1.00000135 L8.66400508,2.32830232 Z M0.00199752679,8.9035802 L9.43940417,0.262464274 C9.8341134,-0.0989409664 10.4433938,-0.0855292166 10.8218176,0.29289457 L13.1305641,2.60164105 C13.5210884,2.99216534 13.5210884,3.62533032 13.1305641,4.01585461 C13.1197237,4.02669497 13.1086355,4.03728461 13.0973082,4.04761513 L3.69376146,12.6237002 L0.00199752679,12.6237002 L0.00199752679,8.9035802 Z M0,15.6371142 L0,14.6371142 L16,14.6371142 L16,15.6371142 L0,15.6371142 Z" id="path-1"></path>
    </defs>
    <g id="Symbols" stroke="none" stroke-width="1" fill="none" fill-rule="evenodd">
        <g id="Icon/Edit">
            <g id="Colors/Base/Black">
                <mask id="mask-2" fill="white">
                    <use xlink:href="#path-1"></use>
                </mask>
                <use id="Mask" fill="#2d60e5" fill-rule="nonzero" xlink:href="#path-1"></use>
                <g id="Colors/Base/Blue50" mask="url(#mask-2)" fill="#3c6df0">
                    <g transform="translate(-8.377562, -8.431784)" id="Rectangle-6-Copy">
                        <rect x="0" y="0" width="35" height="35"></rect>
                    </g>
                </g>
            </g>
        </g>
    </g>
</svg>

<svg width="16" height="16" xmlns="http://www.w3.org/2000/svg" xmlns:xlink="http://www.w3.org/1999/xlink"><defs><path d="M7.926 3.004l-6.924 6.34v2.28h2.304l6.926-6.317-2.306-2.303zm.738-.676l2.308 2.305 1.451-1.324L10.115 1 8.664 2.328zM.002 8.904L9.439.262a1 1 0 0 1 1.383.03l2.309 2.31a1 1 0 0 1-.034 1.446l-9.403 8.576H.002v-3.72zM0 15.637v-1h16v1H0z" id="a"/></defs><g fill="none" fill-rule="evenodd"><mask id="b" fill="#fff"><use xlink:href="#a"/></mask><use fill="#2d60e5" fill-rule="nonzero" xlink:href="#a"/><g mask="url(#b)" fill="#3c6df0"><path d="M-8.378-8.432h35v35h-35z"/></g></g></svg>
